X:2
T:A cho-dhalta mo rùin
M:C
L:1/8
R:March
S:Morison – Highland Airs and Quicksteps, vol. II,  No. 42 (c. 1882)
Z:AK/Fiddler’s Companion
K:A Dorian
A>{B}A e2 e>{d}B d2 | e>{d}B d2 e>{d}B d2 | B>{A}B e2 e>{d}Bd2 | G>B A>A G>B A>A :|
B>{A}G d>{B}B d>{G}G d>{B}B | d>{A}A d>{B}B d>{A}A d>{B}B | B>{A}G d>{B}B d>{G}G d>{B}B |
B>d A>A G>B A>A :: A>{B}A a2 {g}f/e/d f2 | e/d/B e2 d/B/B d2 | f>{e}d f2 e>{d}Be2 |
d>{B}A B2 G>B A>A | G>B A>A z2z2 :: d>G B>B d>G B>B | d>A B>B d>A B>B |
d>G B>B d>A B>B | B>d A>A G>B A>A :: A>{B}A e>e e>{d}c {B}B>d | g>e {G}G>B e{d}B/A/ B2 |
{G}A>{B}A e>e e>{d}c B>d | G>B A>A G>B A>A :: B>d B>d B>d B>d | B>d A>A B>d A>A |
d>{G}G d>{B}B d>{G}G d>{B}B | B>d A>A G>B A>A :|

